X:1
T:James Gibb editions
T:Sacerdotes tui - Draconio
%%score [ 1 2 3 4 ]
L:1/8
Q:1/4=80
M:4/4
K:G
V:1 treble-8 nm="Tenor I" snm="T I"
V:2 treble-8 nm="Tenor II" snm="T II"
V:3 bass nm="Bass I" snm="B I"
V:4 bass nm="Bass II" snm="B II"
V:1
"^Giovanni Andrea Draconio\n(1550?-99)""^Sacerdotes tui" d4 d4 | d4 d4 | d4 d4 | d4 d4 | %4
w: Sa- cer-|do- tes|tu- i|in- du-|
[M:4/4][K:treble-8] d4 e4 | e2 (g4 fe | f2) f2 || g8 | z2 d2 ee g2 | f2 e (d2 ^c/B/ c2) | d8 |] %11
w: an- tur|ju- sti\- * *|* ti-|am|et san- cti tu-|i ex- sul\- * * *|tant.|
V:2
 B4 B4 | B4 B4 | B4 B4 | B4 B4 |[M:4/4][K:treble-8] B4 c4- | c2 B2 d4- | d2 d2 || d8 | %8
w: Sa- cer-|do- tes|tu- i|in- du-|an- tur|* ju- sti\-|* ti-|am|
 z2 B2 cc B2 | d2 B2 A4 | A8 |] %11
w: et san- cti tu-|i ex- sul-|tant.|
V:3
 G,4 G,4 | G,4 G,4 | G,4 G,4 | G,4 G,4 |[M:4/4] G,4 G,4- | G,2 G,2 A,4- | A,2 A,2 || B,8 | %8
w: Sa- cer-|do- tes|tu- i|in- du-|an- tur|* ju- sti\-|* ti-|am|
 z2 G,2 G,G, G,2 | A,2 G,2 E,4 | [D,F,]8 |] %11
w: et san- cti tu-|i ex- sul-|tant.|
V:4
 G,,4 G,,4 | G,,4 G,,4 | G,,4 G,,4 | G,,4 G,,4 |[M:4/4] G,,4 C,4- | C,2 E,2 D,4- | D,2 D,2 || %7
w: Sa- cer-|do- tes|tu- i|in- du-|an- tur|* ju- sti\-|* ti-|
 G,,8 | z2 G,,2 C,C, E,2 | D,2 G,,2 A,,4 | D,8 |] %11
w: am|et san- cti tu-|i ex- sul-|tant.|

